X: 20349
T: John Burke's
R: reel
M: 4/4
K: Ddorian
|:DEGA Bdga|bagd BGDE|F2 =CF A,F=CF|FGAG ^FDCE|
DEGA Bdga|bagd BGDE|F2 AF =cF AF|^FGA^F G2 GE:|
A|:dAAA eAAG|^FD^FA dcAB|c2 B2 cAGF|ECEG c2 Bc|
dAAA eAAG|"14"^FD^FA dcAB|c2 B2 cded|^cAGE D2DA:|
"Alternate measure 14"^FAde f2 ed|

